X:1
T:Greenback Dollar
M:2/4
L:1/8
K:C
 E2 G2| E3 C| DE DC| GG A3/2 A/2| AC E2| z2 EG| E3 C/2C/2| D E/2E/2 DC|\
 CC G3/2 G/2| E G, C2|
